images/content/semiregular-convex-uniform/pentagonal-antiprism.svg

<?xml version="1.0" encoding="UTF-8"?>
<svg xmlns="http://www.w3.org/2000/svg" xmlns:xlink="http://www.w3.org/1999/xlink" width="161.77pt" height="150.38pt" viewBox="0 0 161.77 150.38" version="1.2">
<defs>
<clipPath id="clip1">
  <path d="M 0.21875 42 L 25 42 L 25 138 L 0.21875 138 Z M 0.21875 42 "/>
</clipPath>
<clipPath id="clip2">
  <path d="M 0.21875 0 L 52 0 L 52 80 L 0.21875 80 Z M 0.21875 0 "/>
</clipPath>
<clipPath id="clip3">
  <path d="M 0.21875 0 L 67 0 L 67 88 L 0.21875 88 Z M 0.21875 0 "/>
</clipPath>
<clipPath id="clip4">
  <path d="M 0.21875 0 L 68 0 L 68 88 L 0.21875 88 Z M 0.21875 0 "/>
</clipPath>
<clipPath id="clip5">
  <path d="M 139 8 L 161.324219 8 L 161.324219 95 L 139 95 Z M 139 8 "/>
</clipPath>
<clipPath id="clip6">
  <path d="M 139 8 L 161.324219 8 L 161.324219 96 L 139 96 Z M 139 8 "/>
</clipPath>
<clipPath id="clip7">
  <path d="M 24 94 L 159 94 L 159 149.761719 L 24 149.761719 Z M 24 94 "/>
</clipPath>
<clipPath id="clip8">
  <path d="M 23 94 L 159 94 L 159 149.761719 L 23 149.761719 Z M 23 94 "/>
</clipPath>
<clipPath id="clip9">
  <path d="M 120 59 L 161.324219 59 L 161.324219 149.761719 L 120 149.761719 Z M 120 59 "/>
</clipPath>
<clipPath id="clip10">
  <path d="M 66 8 L 161.324219 8 L 161.324219 88 L 66 88 Z M 66 8 "/>
</clipPath>
<clipPath id="clip11">
  <path d="M 24 87 L 121 87 L 121 149.761719 L 24 149.761719 Z M 24 87 "/>
</clipPath>
<clipPath id="clip12">
  <path d="M 23 86 L 121 86 L 121 149.761719 L 23 149.761719 Z M 23 86 "/>
</clipPath>
<clipPath id="clip13">
  <path d="M 0.21875 42 L 67 42 L 67 138 L 0.21875 138 Z M 0.21875 42 "/>
</clipPath>
<clipPath id="clip14">
  <path d="M 0.21875 42 L 68 42 L 68 138 L 0.21875 138 Z M 0.21875 42 "/>
</clipPath>
<clipPath id="clip15">
  <path d="M 66 59 L 161.324219 59 L 161.324219 149.761719 L 66 149.761719 Z M 66 59 "/>
</clipPath>
</defs>
<g id="surface1">
<path style="fill-rule:nonzero;fill:rgb(78.330994%,51.773071%,60.076904%);fill-opacity:1;stroke-width:5;stroke-linecap:round;stroke-linejoin:round;stroke:rgb(13.729858%,12.159729%,12.548828%);stroke-opacity:1;stroke-miterlimit:10;" d="M 515.919078 1501.250469 L 200.326392 708.856305 L 965.420965 920.467359 Z M 515.919078 1501.250469 " transform="matrix(0.0995894,0,0,-0.0995894,0.217583,149.762546)"/>
<path style="fill-rule:nonzero;fill:rgb(47.544861%,29.316711%,63.523865%);fill-opacity:1;stroke-width:5;stroke-linecap:round;stroke-linejoin:round;stroke:rgb(13.729858%,12.159729%,12.548828%);stroke-opacity:1;stroke-miterlimit:10;" d="M 1397.429148 1420.842191 L 965.420965 920.467359 L 1588.13405 551.80521 Z M 1397.429148 1420.842191 " transform="matrix(0.0995894,0,0,-0.0995894,0.217583,149.762546)"/>
<path style="fill-rule:nonzero;fill:rgb(62.266541%,29.489136%,49.702454%);fill-opacity:1;stroke-width:5;stroke-linecap:round;stroke-linejoin:round;stroke:rgb(13.729858%,12.159729%,12.548828%);stroke-opacity:1;stroke-miterlimit:10;" d="M 1397.429148 1420.842191 L 515.919078 1501.250469 L 965.420965 920.467359 Z M 1397.429148 1420.842191 " transform="matrix(0.0995894,0,0,-0.0995894,0.217583,149.762546)"/>
<path style="fill-rule:nonzero;fill:rgb(68.736267%,73.138428%,89.555359%);fill-opacity:1;stroke-width:5;stroke-linecap:round;stroke-linejoin:round;stroke:rgb(13.729858%,12.159729%,12.548828%);stroke-opacity:1;stroke-miterlimit:10;" d="M 1588.13405 551.80521 L 965.420965 920.467359 L 200.326392 708.856305 " transform="matrix(0.0995894,0,0,-0.0995894,0.217583,149.762546)"/>
<g clip-path="url(#clip1)" clip-rule="nonzero">
<path style="fill-rule:nonzero;fill:rgb(89.93988%,88.809204%,31.950378%);fill-opacity:1;stroke-width:5;stroke-linecap:round;stroke-linejoin:round;stroke:rgb(13.729858%,12.159729%,12.548828%);stroke-opacity:1;stroke-miterlimit:10;" d="M 2.482804 1072.576288 L 240.452084 126.700371 L 200.326392 708.856305 Z M 2.482804 1072.576288 " transform="matrix(0.0995894,0,0,-0.0995894,0.217583,149.762546)"/>
</g>
<g clip-path="url(#clip2)" clip-rule="nonzero">
<path style="fill-rule:nonzero;fill:rgb(94.400024%,56.730652%,31.254578%);fill-opacity:1;stroke-width:5;stroke-linecap:round;stroke-linejoin:round;stroke:rgb(13.729858%,12.159729%,12.548828%);stroke-opacity:1;stroke-miterlimit:10;" d="M 515.919078 1501.250469 L 2.482804 1072.576288 L 200.326392 708.856305 Z M 515.919078 1501.250469 " transform="matrix(0.0995894,0,0,-0.0995894,0.217583,149.762546)"/>
</g>
<path style=" stroke:none;fill-rule:nonzero;fill:rgb(68.736267%,73.138428%,89.555359%);fill-opacity:1;" d="M 20.167969 79.167969 L 24.164062 137.144531 L 158.378906 94.808594 "/>
<path style="fill:none;stroke-width:5;stroke-linecap:round;stroke-linejoin:round;stroke:rgb(13.729858%,12.159729%,12.548828%);stroke-opacity:1;stroke-miterlimit:10;" d="M 200.326392 708.856305 L 240.452084 126.700371 " transform="matrix(0.0995894,0,0,-0.0995894,0.217583,149.762546)"/>
<path style=" stroke:none;fill-rule:nonzero;fill:rgb(67.21344%,76.367188%,91.300964%);fill-opacity:1;" d="M 51.597656 0.253906 L 139.386719 8.261719 L 66.890625 87.027344 "/>
<path style="fill:none;stroke-width:5;stroke-linecap:round;stroke-linejoin:round;stroke:rgb(13.729858%,12.159729%,12.548828%);stroke-opacity:1;stroke-miterlimit:10;" d="M 515.919078 1501.250469 L 1397.429148 1420.842191 " transform="matrix(0.0995894,0,0,-0.0995894,0.217583,149.762546)"/>
<g clip-path="url(#clip3)" clip-rule="nonzero">
<path style=" stroke:none;fill-rule:nonzero;fill:rgb(67.21344%,76.367188%,91.300964%);fill-opacity:1;" d="M 66.890625 87.027344 L 0.464844 42.945312 L 51.597656 0.253906 "/>
</g>
<g clip-path="url(#clip4)" clip-rule="nonzero">
<path style="fill:none;stroke-width:5;stroke-linecap:round;stroke-linejoin:round;stroke:rgb(13.729858%,12.159729%,12.548828%);stroke-opacity:1;stroke-miterlimit:10;" d="M 669.479277 629.938522 L 2.482804 1072.576288 L 515.919078 1501.250469 " transform="matrix(0.0995894,0,0,-0.0995894,0.217583,149.762546)"/>
</g>
<g clip-path="url(#clip5)" clip-rule="nonzero">
<path style=" stroke:none;fill-rule:nonzero;fill:rgb(7.910156%,7.957458%,10.148621%);fill-opacity:1;" d="M 161.078125 59.648438 L 139.386719 8.261719 L 158.378906 94.808594 Z M 161.078125 59.648438 "/>
</g>
<g clip-path="url(#clip6)" clip-rule="nonzero">
<path style="fill:none;stroke-width:5;stroke-linecap:round;stroke-linejoin:round;stroke:rgb(13.729858%,12.159729%,12.548828%);stroke-opacity:1;stroke-miterlimit:10;" d="M 1615.237523 904.856386 L 1397.429148 1420.842191 L 1588.13405 551.80521 Z M 1615.237523 904.856386 " transform="matrix(0.0995894,0,0,-0.0995894,0.217583,149.762546)"/>
</g>
<g clip-path="url(#clip7)" clip-rule="nonzero">
<path style=" stroke:none;fill-rule:nonzero;fill:rgb(68.736267%,73.138428%,89.555359%);fill-opacity:1;" d="M 24.164062 137.144531 L 120.355469 149.511719 L 158.378906 94.808594 "/>
</g>
<g clip-path="url(#clip8)" clip-rule="nonzero">
<path style="fill:none;stroke-width:5;stroke-linecap:round;stroke-linejoin:round;stroke:rgb(13.729858%,12.159729%,12.548828%);stroke-opacity:1;stroke-miterlimit:10;" d="M 240.452084 126.700371 L 1206.332011 2.518611 L 1588.13405 551.80521 " transform="matrix(0.0995894,0,0,-0.0995894,0.217583,149.762546)"/>
</g>
<g clip-path="url(#clip9)" clip-rule="nonzero">
<path style="fill-rule:nonzero;fill:rgb(87.654114%,44.187927%,10.028076%);fill-opacity:1;stroke-width:5;stroke-linecap:round;stroke-linejoin:round;stroke:rgb(13.729858%,12.159729%,12.548828%);stroke-opacity:1;stroke-miterlimit:10;" d="M 1615.237523 904.856386 L 1588.13405 551.80521 L 1206.332011 2.518611 Z M 1615.237523 904.856386 " transform="matrix(0.0995894,0,0,-0.0995894,0.217583,149.762546)"/>
</g>
<g clip-path="url(#clip10)" clip-rule="nonzero">
<path style="fill-rule:nonzero;fill:rgb(67.21344%,76.367188%,91.300964%);fill-opacity:1;stroke-width:5;stroke-linecap:round;stroke-linejoin:round;stroke:rgb(13.729858%,12.159729%,12.548828%);stroke-opacity:1;stroke-miterlimit:10;" d="M 1397.429148 1420.842191 L 1615.237523 904.856386 L 669.479277 629.938522 " transform="matrix(0.0995894,0,0,-0.0995894,0.217583,149.762546)"/>
</g>
<g clip-path="url(#clip11)" clip-rule="nonzero">
<path style=" stroke:none;fill-rule:nonzero;fill:rgb(58.06427%,20.718384%,38.589478%);fill-opacity:1;" d="M 66.890625 87.027344 L 120.355469 149.511719 L 24.164062 137.144531 Z M 66.890625 87.027344 "/>
</g>
<g clip-path="url(#clip12)" clip-rule="nonzero">
<path style="fill:none;stroke-width:5;stroke-linecap:round;stroke-linejoin:round;stroke:rgb(13.729858%,12.159729%,12.548828%);stroke-opacity:1;stroke-miterlimit:10;" d="M 669.479277 629.938522 L 1206.332011 2.518611 L 240.452084 126.700371 Z M 669.479277 629.938522 " transform="matrix(0.0995894,0,0,-0.0995894,0.217583,149.762546)"/>
</g>
<g clip-path="url(#clip13)" clip-rule="nonzero">
<path style=" stroke:none;fill-rule:nonzero;fill:rgb(36.260986%,20.690918%,57.525635%);fill-opacity:1;" d="M 0.464844 42.945312 L 66.890625 87.027344 L 24.164062 137.144531 Z M 0.464844 42.945312 "/>
</g>
<g clip-path="url(#clip14)" clip-rule="nonzero">
<path style="fill:none;stroke-width:5;stroke-linecap:round;stroke-linejoin:round;stroke:rgb(13.729858%,12.159729%,12.548828%);stroke-opacity:1;stroke-miterlimit:10;" d="M 2.482804 1072.576288 L 669.479277 629.938522 L 240.452084 126.700371 Z M 2.482804 1072.576288 " transform="matrix(0.0995894,0,0,-0.0995894,0.217583,149.762546)"/>
</g>
<g clip-path="url(#clip15)" clip-rule="nonzero">
<path style="fill-rule:nonzero;fill:rgb(80.392456%,51.419067%,55.783081%);fill-opacity:1;stroke-width:5;stroke-linecap:round;stroke-linejoin:round;stroke:rgb(13.729858%,12.159729%,12.548828%);stroke-opacity:1;stroke-miterlimit:10;" d="M 669.479277 629.938522 L 1615.237523 904.856386 L 1206.332011 2.518611 Z M 669.479277 629.938522 " transform="matrix(0.0995894,0,0,-0.0995894,0.217583,149.762546)"/>
</g>
</g>
</svg>

<svg xmlns="http://www.w3.org/2000/svg" width="215.693" height="200.507" viewBox="0 0 161.77 150.38" version="1.2"><defs><clipPath id="a"><path d="M.219 42H25v96H.219Zm0 0"/></clipPath><clipPath id="b"><path d="M.219 0H52v80H.219Zm0 0"/></clipPath><clipPath id="c"><path d="M.219 0H67v88H.219Zm0 0"/></clipPath><clipPath id="d"><path d="M.219 0H68v88H.219Zm0 0"/></clipPath><clipPath id="e"><path d="M139 8h22.324v87H139Zm0 0"/></clipPath><clipPath id="f"><path d="M139 8h22.324v88H139Zm0 0"/></clipPath><clipPath id="g"><path d="M24 94h135v55.762H24Zm0 0"/></clipPath><clipPath id="h"><path d="M23 94h136v55.762H23Zm0 0"/></clipPath><clipPath id="i"><path d="M120 59h41.324v90.762H120Zm0 0"/></clipPath><clipPath id="j"><path d="M66 8h95.324v80H66Zm0 0"/></clipPath><clipPath id="k"><path d="M24 87h97v62.762H24Zm0 0"/></clipPath><clipPath id="l"><path d="M23 86h98v63.762H23Zm0 0"/></clipPath><clipPath id="m"><path d="M.219 42H67v96H.219Zm0 0"/></clipPath><clipPath id="n"><path d="M.219 42H68v96H.219Zm0 0"/></clipPath><clipPath id="o"><path d="M66 59h95.324v90.762H66Zm0 0"/></clipPath></defs><path style="fill-rule:nonzero;fill:#c88499;fill-opacity:1;stroke-width:5;stroke-linecap:round;stroke-linejoin:round;stroke:#231f20;stroke-opacity:1;stroke-miterlimit:10" d="M515.92 1501.25 200.325 708.856l765.095 211.611Zm0 0" transform="matrix(.09959 0 0 -.09959 .218 149.763)"/><path style="fill-rule:nonzero;fill:#794ba2;fill-opacity:1;stroke-width:5;stroke-linecap:round;stroke-linejoin:round;stroke:#231f20;stroke-opacity:1;stroke-miterlimit:10" d="M1397.43 1420.842 965.42 920.467l622.713-368.662Zm0 0" transform="matrix(.09959 0 0 -.09959 .218 149.763)"/><path style="fill-rule:nonzero;fill:#9f4b7f;fill-opacity:1;stroke-width:5;stroke-linecap:round;stroke-linejoin:round;stroke:#231f20;stroke-opacity:1;stroke-miterlimit:10" d="m1397.43 1420.842-881.51 80.408L965.42 920.467Zm0 0" transform="matrix(.09959 0 0 -.09959 .218 149.763)"/><path style="fill-rule:nonzero;fill:#afbbe4;fill-opacity:1;stroke-width:5;stroke-linecap:round;stroke-linejoin:round;stroke:#231f20;stroke-opacity:1;stroke-miterlimit:10" d="M1588.134 551.805 965.421 920.467l-765.095-211.61" transform="matrix(.09959 0 0 -.09959 .218 149.763)"/><g clip-path="url(#a)"><path style="fill-rule:nonzero;fill:#e5e251;fill-opacity:1;stroke-width:5;stroke-linecap:round;stroke-linejoin:round;stroke:#231f20;stroke-opacity:1;stroke-miterlimit:10" d="M2.483 1072.576 240.453 126.7l-40.127 582.156Zm0 0" transform="matrix(.09959 0 0 -.09959 .218 149.763)"/></g><g clip-path="url(#b)"><path style="fill-rule:nonzero;fill:#f19150;fill-opacity:1;stroke-width:5;stroke-linecap:round;stroke-linejoin:round;stroke:#231f20;stroke-opacity:1;stroke-miterlimit:10" d="M515.92 1501.25 2.482 1072.576l197.843-363.72Zm0 0" transform="matrix(.09959 0 0 -.09959 .218 149.763)"/></g><path style="stroke:none;fill-rule:nonzero;fill:#afbbe4;fill-opacity:1" d="m20.168 79.168 3.996 57.977L158.38 94.809"/><path style="fill:none;stroke-width:5;stroke-linecap:round;stroke-linejoin:round;stroke:#231f20;stroke-opacity:1;stroke-miterlimit:10" d="M200.326 708.856 240.452 126.7" transform="matrix(.09959 0 0 -.09959 .218 149.763)"/><path style="stroke:none;fill-rule:nonzero;fill:#abc3e9;fill-opacity:1" d="m51.598.254 87.789 8.008L66.89 87.027"/><path style="fill:none;stroke-width:5;stroke-linecap:round;stroke-linejoin:round;stroke:#231f20;stroke-opacity:1;stroke-miterlimit:10" d="m515.92 1501.25 881.51-80.408" transform="matrix(.09959 0 0 -.09959 .218 149.763)"/><g clip-path="url(#c)"><path style="stroke:none;fill-rule:nonzero;fill:#abc3e9;fill-opacity:1" d="M66.89 87.027.466 42.945 51.598.254"/></g><g clip-path="url(#d)"><path style="fill:none;stroke-width:5;stroke-linecap:round;stroke-linejoin:round;stroke:#231f20;stroke-opacity:1;stroke-miterlimit:10" d="M669.48 629.939 2.482 1072.576l513.436 428.674" transform="matrix(.09959 0 0 -.09959 .218 149.763)"/></g><g clip-path="url(#e)"><path style="stroke:none;fill-rule:nonzero;fill:#14141a;fill-opacity:1" d="M161.078 59.648 139.387 8.262l18.992 86.547Zm0 0"/></g><g clip-path="url(#f)"><path style="fill:none;stroke-width:5;stroke-linecap:round;stroke-linejoin:round;stroke:#231f20;stroke-opacity:1;stroke-miterlimit:10" d="m1615.238 904.856-217.809 515.986 190.705-869.037Zm0 0" transform="matrix(.09959 0 0 -.09959 .218 149.763)"/></g><g clip-path="url(#g)"><path style="stroke:none;fill-rule:nonzero;fill:#afbbe4;fill-opacity:1" d="m24.164 137.145 96.191 12.367 38.024-54.703"/></g><g clip-path="url(#h)"><path style="fill:none;stroke-width:5;stroke-linecap:round;stroke-linejoin:round;stroke:#231f20;stroke-opacity:1;stroke-miterlimit:10" d="M240.452 126.7 1206.332 2.52l381.802 549.286" transform="matrix(.09959 0 0 -.09959 .218 149.763)"/></g><g clip-path="url(#i)"><path style="fill-rule:nonzero;fill:#e0711a;fill-opacity:1;stroke-width:5;stroke-linecap:round;stroke-linejoin:round;stroke:#231f20;stroke-opacity:1;stroke-miterlimit:10" d="m1615.238 904.856-27.104-353.05L1206.332 2.518Zm0 0" transform="matrix(.09959 0 0 -.09959 .218 149.763)"/></g><g clip-path="url(#j)"><path style="fill-rule:nonzero;fill:#abc3e9;fill-opacity:1;stroke-width:5;stroke-linecap:round;stroke-linejoin:round;stroke:#231f20;stroke-opacity:1;stroke-miterlimit:10" d="m1397.43 1420.842 217.808-515.986L669.479 629.94" transform="matrix(.09959 0 0 -.09959 .218 149.763)"/></g><g clip-path="url(#k)"><path style="stroke:none;fill-rule:nonzero;fill:#943562;fill-opacity:1" d="m66.89 87.027 53.465 62.485-96.19-12.367Zm0 0"/></g><g clip-path="url(#l)"><path style="fill:none;stroke-width:5;stroke-linecap:round;stroke-linejoin:round;stroke:#231f20;stroke-opacity:1;stroke-miterlimit:10" d="m669.48 629.939 536.852-627.42L240.452 126.7Zm0 0" transform="matrix(.09959 0 0 -.09959 .218 149.763)"/></g><g clip-path="url(#m)"><path style="stroke:none;fill-rule:nonzero;fill:#5c3593;fill-opacity:1" d="M.465 42.945 66.89 87.027l-42.727 50.118Zm0 0"/></g><g clip-path="url(#n)"><path style="fill:none;stroke-width:5;stroke-linecap:round;stroke-linejoin:round;stroke:#231f20;stroke-opacity:1;stroke-miterlimit:10" d="M2.483 1072.576 669.479 629.94 240.452 126.7Zm0 0" transform="matrix(.09959 0 0 -.09959 .218 149.763)"/></g><g clip-path="url(#o)"><path style="fill-rule:nonzero;fill:#cd838e;fill-opacity:1;stroke-width:5;stroke-linecap:round;stroke-linejoin:round;stroke:#231f20;stroke-opacity:1;stroke-miterlimit:10" d="m669.48 629.939 945.758 274.917L1206.332 2.52Zm0 0" transform="matrix(.09959 0 0 -.09959 .218 149.763)"/></g></svg>
